X:1
T: Captain Francis Wemyss
C:
R:Strathspey
Q: 128
K:D
M:4/4
L:1/16
|:A2|FA3 d3A B3A d3A|Bd3 A3F EEE2 E4|FA3 d3A B3A d3A|Bd3 A3F DDD2 D2A2|
FA3 d3A B3A d3A|Bd3 A3F EEE2 E4|FA3 d3A B3A d3A|Bd3 A3F DDD2 D2g2|
f3e d3e d3e f3g|ad3 d3f eee2 e3g|f3e d3e d3e f3e|d3B A3F DDD2 D2g2|
f3e d3e d3e f3g|ad3 d3f eee2 e3g|fa3 ef3 de3 Bd3|A3F d3F DDD2 D2:|
